icons/svg/symbols.svg

<svg width="24" height="24" viewBox="0 0 24 24" fill="none" xmlns="http://www.w3.org/2000/svg">
<path d="M13.9005 3.91805C14.6639 3.1546 15.9017 3.15459 16.6652 3.91805L17.2889 4.5418L17.9127 3.91805C18.6761 3.15459 19.9139 3.1546 20.6774 3.91805C21.4409 4.68151 21.4409 5.91931 20.6774 6.68277L20.0536 7.30651L20.0593 7.31213L17.2946 10.0768L17.2889 10.0712L17.2833 10.0768L14.5186 7.31213L14.5242 7.30651L13.9005 6.68277C13.137 5.91931 13.137 4.68151 13.9005 3.91805Z" stroke="currentColor" stroke-width="1.5" stroke-linejoin="round"/>
<path d="M3.73579 9.09106C4.34486 9.70013 5.18628 10.0768 6.11569 10.0768C7.97452 10.0768 9.48139 8.56997 9.48139 6.71115C9.48139 5.78174 9.10467 4.94032 8.4956 4.33125M3.73579 9.09106C3.12672 8.48199 2.75 7.64056 2.75 6.71115C2.75 4.85233 4.25687 3.34546 6.11569 3.34546C7.0451 3.34546 7.88653 3.72218 8.4956 4.33125M3.73579 9.09106L8.4956 4.33125" stroke="currentColor" stroke-width="1.5" stroke-linecap="round" stroke-linejoin="round"/>
<path d="M2.75 17.289H6.11568M6.11568 17.289L9.48139 17.289M6.11568 17.289V13.9233M6.11568 17.289L6.11571 20.6547" stroke="currentColor" stroke-width="1.5" stroke-linecap="round" stroke-linejoin="round"/>
<path d="M13.4426 16.4179C13.6149 15.7749 13.9739 15.1975 14.4744 14.7586C14.9749 14.3197 15.5943 14.039 16.2543 13.9521C16.9142 13.8652 17.5852 13.976 18.1822 14.2704C18.7792 14.5649 19.2755 15.0297 19.6083 15.6062L19.7969 15.9032M20.0593 13.9233V15.9032H19.7969M18.0794 15.9032H19.7969M13.3279 20.6547V18.6749H13.5938M15.3077 18.6749H13.5938M19.9446 18.1601C19.7723 18.8031 19.4132 19.3806 18.9127 19.8195C18.4122 20.2584 17.7929 20.539 17.1329 20.6259C16.4729 20.7128 15.802 20.602 15.205 20.3076C14.6079 20.0132 14.1116 19.5484 13.7788 18.9719L13.5938 18.6749" stroke="currentColor" stroke-width="1.5" stroke-linecap="round" stroke-linejoin="round"/>
</svg>

<svg xmlns="http://www.w3.org/2000/svg" width="24" height="24" fill="none" viewBox="0 0 24 24"><path stroke="currentColor" stroke-linejoin="round" stroke-width="1.5" d="M13.9 3.918a1.955 1.955 0 0 1 2.765 0l.624.624.624-.624a1.955 1.955 0 1 1 2.764 2.765l-.623.624.005.005-2.764 2.765-.006-.006-.006.006-2.764-2.765.005-.005-.623-.624a1.955 1.955 0 0 1 0-2.765Z"/><path stroke="currentColor" stroke-linecap="round" stroke-linejoin="round" stroke-width="1.5" d="M3.736 9.091a3.366 3.366 0 1 0 4.76-4.76m-4.76 4.76a3.366 3.366 0 1 1 4.76-4.76m-4.76 4.76 4.76-4.76M2.75 17.289h3.366m0 0H9.48m-3.365 0v-3.366m0 3.366v3.366m7.328-4.237a3.365 3.365 0 0 1 6.165-.812l.189.297m.262-1.98v1.98h-.262m-1.718 0h1.718m-6.47 4.752v-1.98h.267m1.714 0h-1.714m6.35-.515a3.366 3.366 0 0 1-6.165.812l-.185-.297"/></svg>
